icon/ig.svg

<svg width="37" height="37" viewBox="0 0 37 37" fill="none" xmlns="http://www.w3.org/2000/svg">
<path d="M11.8398 3.03589H24.5903C29.4476 3.03589 33.3942 6.98247 33.3942 11.8398V24.5903C33.3942 26.9253 32.4667 29.1646 30.8156 30.8156C29.1646 32.4667 26.9253 33.3942 24.5903 33.3942H11.8398C6.98247 33.3942 3.03589 29.4476 3.03589 24.5903V11.8398C3.03589 9.50486 3.96344 7.26555 5.6145 5.6145C7.26555 3.96344 9.50486 3.03589 11.8398 3.03589ZM11.5362 6.07172C10.0869 6.07172 8.69703 6.64744 7.67224 7.67224C6.64744 8.69703 6.07172 10.0869 6.07172 11.5362V24.8939C6.07172 27.9145 8.51557 30.3584 11.5362 30.3584H24.8939C26.3432 30.3584 27.7331 29.7827 28.7579 28.7579C29.7827 27.7331 30.3584 26.3432 30.3584 24.8939V11.5362C30.3584 8.51557 27.9145 6.07172 24.8939 6.07172H11.5362ZM26.1841 8.3486C26.6873 8.3486 27.17 8.5485 27.5258 8.90433C27.8816 9.26016 28.0815 9.74277 28.0815 10.246C28.0815 10.7492 27.8816 11.2318 27.5258 11.5877C27.17 11.9435 26.6873 12.1434 26.1841 12.1434C25.6809 12.1434 25.1983 11.9435 24.8425 11.5877C24.4866 11.2318 24.2867 10.7492 24.2867 10.246C24.2867 9.74277 24.4866 9.26016 24.8425 8.90433C25.1983 8.5485 25.6809 8.3486 26.1841 8.3486ZM18.2151 10.6255C20.2279 10.6255 22.1584 11.4251 23.5817 12.8484C25.005 14.2717 25.8046 16.2022 25.8046 18.2151C25.8046 20.2279 25.005 22.1584 23.5817 23.5817C22.1584 25.005 20.2279 25.8046 18.2151 25.8046C16.2022 25.8046 14.2717 25.005 12.8484 23.5817C11.4251 22.1584 10.6255 20.2279 10.6255 18.2151C10.6255 16.2022 11.4251 14.2717 12.8484 12.8484C14.2717 11.4251 16.2022 10.6255 18.2151 10.6255ZM18.2151 13.6613C17.0073 13.6613 15.8491 14.1411 14.9951 14.9951C14.1411 15.8491 13.6613 17.0073 13.6613 18.2151C13.6613 19.4228 14.1411 20.581 14.9951 21.435C15.8491 22.289 17.0073 22.7688 18.2151 22.7688C19.4228 22.7688 20.581 22.289 21.435 21.435C22.289 20.581 22.7688 19.4228 22.7688 18.2151C22.7688 17.0073 22.289 15.8491 21.435 14.9951C20.581 14.1411 19.4228 13.6613 18.2151 13.6613Z" fill="#0F4E6D"/>
</svg>

<?xml version="1.0" encoding="UTF-8"?>
<svg fill="none" viewBox="0 0 37 37" xmlns="http://www.w3.org/2000/svg">
<path d="m11.84 3.0359h12.75c4.8573 0 8.8039 3.9466 8.8039 8.8039v12.75c0 2.335-0.9275 4.5743-2.5786 6.2253-1.651 1.6511-3.8903 2.5786-6.2253 2.5786h-12.75c-4.8573 0-8.8039-3.9466-8.8039-8.8039v-12.75c0-2.3349 0.92755-4.5742 2.5786-6.2253 1.651-1.6511 3.8904-2.5786 6.2253-2.5786zm-0.3036 3.0358c-1.4493 0-2.8392 0.57572-3.864 1.6005-1.0248 1.0248-1.6005 2.4147-1.6005 3.864v13.358c0 3.0206 2.4438 5.4645 5.4645 5.4645h13.358c1.4493 0 2.8392-0.5757 3.864-1.6005s1.6005-2.4147 1.6005-3.864v-13.358c0-3.0206-2.4439-5.4645-5.4645-5.4645h-13.358zm14.648 2.2769c0.5032 0 0.9859 0.1999 1.3417 0.55573s0.5557 0.83844 0.5557 1.3417c0 0.5032-0.1999 0.9858-0.5557 1.3417-0.3558 0.3558-0.8385 0.5557-1.3417 0.5557s-0.9858-0.1999-1.3416-0.5557c-0.3559-0.3559-0.5558-0.8385-0.5558-1.3417 0-0.50323 0.1999-0.98584 0.5558-1.3417 0.3558-0.35583 0.8384-0.55573 1.3416-0.55573zm-7.969 2.2769c2.0128 0 3.9433 0.7996 5.3666 2.2229s2.2229 3.3538 2.2229 5.3667c0 2.0128-0.7996 3.9433-2.2229 5.3666s-3.3538 2.2229-5.3666 2.2229c-2.0129 0-3.9434-0.7996-5.3667-2.2229s-2.2229-3.3538-2.2229-5.3666c0-2.0129 0.7996-3.9434 2.2229-5.3667s3.3538-2.2229 5.3667-2.2229zm0 3.0358c-1.2078 0-2.366 0.4798-3.22 1.3338s-1.3338 2.0122-1.3338 3.22c0 1.2077 0.4798 2.3659 1.3338 3.2199s2.0122 1.3338 3.22 1.3338c1.2077 0 2.3659-0.4798 3.2199-1.3338s1.3338-2.0122 1.3338-3.2199c0-1.2078-0.4798-2.366-1.3338-3.22s-2.0122-1.3338-3.2199-1.3338z" fill="#0F4E6D"/>
</svg>
